outputs/icons/date_time/clock_edit_round.svg

<svg xmlns="http://www.w3.org/2000/svg" width="1200" height="1200" fill="none"><path fill="#000" d="M581.97 351.045h3c20 0 36 16 36 36v227l193.5 115c17.5 10 23 32.5 12.5 49.5-10 17-32 22-49 12l-207.5-124.5c-15.5-9-24.5-25.5-24.5-43v-236c0-20 16-36 36-36"/><path fill="#000" d="M100 600c0-276 223.5-500 499.5-500C876 100 1100 324 1100 600c0 8.905-.235 17.76-.695 26.55-1.54 29.38-33.25 45.15-61.375 36.54-22.385-6.85-38.76-28.085-38.095-51.485q.165-5.784.165-11.605c0-221-179-400-400-400S200 379 200 600s179 400 400 400q5.826 0 11.615-.165c23.395-.665 44.625 15.705 51.475 38.08 8.6 28.115-7.155 59.8-36.515 61.365q-13.447.72-27.075.72c-276 0-499.5-224-499.5-500M750 1066.68V1150h83.32l245.745-245.745-83.32-83.32zm393.5-226.86c8.665-8.665 8.665-22.665 0-31.33l-51.99-51.99c-8.665-8.665-22.665-8.665-31.33 0l-40.66 40.66 83.32 83.32z"/></svg>

<svg width="1200" height="1200" viewBox="0 0 1200 1200" fill="none" xmlns="http://www.w3.org/2000/svg"><path d="M581.97 351.045H584.97C604.97 351.045 620.97 367.045 620.97 387.045V614.045L814.47 729.045C831.97 739.045 837.47 761.545 826.97 778.545C816.97 795.545 794.97 800.545 777.97 790.545L570.47 666.045C554.97 657.045 545.97 640.545 545.97 623.045V387.045C545.97 367.045 561.97 351.045 581.97 351.045Z" fill="#1D1E23"/><path d="M100 600C100 324 323.5 100 599.5 100C876 100 1100 324 1100 600C1100 608.905 1099.765 617.76 1099.305 626.55C1097.765 655.93 1066.055 671.7 1037.93 663.09C1015.545 656.24 999.17 635.005 999.835 611.605C999.945 607.75 1000 603.88 1000 600C1000 379 821 200 600 200C379 200 200 379 200 600C200 821 379 1000 600 1000C603.885 1000 607.755 999.945 611.615 999.835C635.01 999.17 656.24 1015.54 663.09 1037.915C671.69 1066.03 655.935 1097.715 626.575 1099.28C617.61 1099.76 608.585 1100 599.5 1100C323.5 1100 100 876 100 600Z" fill="#1D1E23"/><path d="M750 1066.68V1150H833.32L1079.065 904.255L995.745 820.935L750 1066.68ZM1143.5 839.82C1152.165 831.155 1152.165 817.155 1143.5 808.49L1091.51 756.5C1082.845 747.835 1068.845 747.835 1060.18 756.5L1019.52 797.16L1102.84 880.48L1143.5 839.82Z" fill="#1D1E23"/></svg>
